X:86
T:Loosing Space
T:The Handle Bar Mustache
C:copyright (c) 2003 R. S. Doiel, all rights reserved.
N:Written March 19, 2003 after visiting my parents.
N:Title by Rob Lamog-Doiel
L:1/8
M:C
Q:1/4=140
K:G treble
GA B2 AB c2 | ABdB GA B2 | ABdB GAcA | ABed dccB |
GA B2 AB c2 | ABdB GA B2 | ABdB GAcA | ABBc cd B2 ||
edcd dcBc | ABdB GA B2 | edcd dcBc | ABed dccB |
GA B2 AB c2 | ABdB GA B2 | dedd cc B2 | cddc cB G2 |]


